X:1
T:Morning Mist - Original Folk Melody
C:Alex
M:3/4
L:1/8
K:D

|: d2f2a2 | f4d2 | e2g2b2 | g4e2 |
   d2f2a2 | f4d2 | e2f2g2 | a4z2 :|

|: d2A2d2 | f4e2 | d2A2d2 | e4d2 |
   d2A2d2 | f4e2 | d2e2f2 | g4z2 :|

|: a2f2d2 | c4A2 | G2E2C2 | D4F2 |
   A2f2d2 | c4A2 | G2A2B2 | c4z2 :|

